X:1
T:Bethesda
T:Adam Geibel
T:Bethesda
T:Public Domain
T:Public Domain
C:Adam Geibel
Z:Public Domain
%%score ( 1 2 ) 3
L:1/8
M:4/4
K:G
V:1 treble 
V:2 treble 
V:3 bass 
V:1
"^Slowly and with great expression" [DB] | [DB]3 [^C^A] [DB]3 [DB] | %2
w: 1.~I|come, O Lord, when|
w: 2.~I|come, O Lord, when|
w: 3.~I|come, O Lord, though|
 [Ec][Ec][EG][EA] [DB]2 [B,G][DB] | [Fd]3 [Dc] [DB]3 [DB] | [DB][DA][^CA][CG] (G2 F)[DB] | %5
w: trou- bled waves are stir- ring The|heal- ing fount that|cures the touch of sin; * I|
w: mer- cy is ex- tend- ed, And|an- gel wings are|brood- ing soft- ly o’er; * The|
w: o- thers may be hast- ing With|strong- er steps to|seek the way of life; * I|
 [DB]3 [^C^A] [DB]3 [DB] | [Ec][Ec][EG][_EA] | [DB]2 [B,G][DB] | [DB]2 [=Fd]2 (d2 c)[EB] | %9
w: in hope, no faint-|ness then de- ter-|ring, But there|are none, O * Lord,|
w: of sin, that I|had once de- fend-|ed, I leave|them all, and * I|
w: in faith, no pre-|cious mo- ment wast-|ing, While earth|and Heaven with * love|
 [DB][CA][Ec][DB] [B,G]2 ||[M:3/4]"^Refrain  Quartet" d>d | (F>G A2) d>d | (G>A B2) [DB][DB] | %13
w: help me in. * *||||
w: do no more. Help me|in, help|me * * in! I|tir- * * ed now|
w: peace are rife. * *||||
 [Ec]3 [Ec] [EG][EA] | [^DB]4 B>E | (C>C z B) A>D x | (B,>B, [B,G]2) [DF][CE] | %17
w: ||||
w: sin; Help me in,|help me in!|may * * life e-|win! * * * *|
w: ||||
 [B,D][GB] [FA]3 [DG] | [DG]4 |] %19
w: ||
w: ||
w: ||
V:2
 x | x8 | x8 | x8 | x4 D3 x | x8 | x4 | x4 | x4 E3 x | x6 ||[M:3/4] x2 | d4 x2 | d4 x2 | x6 | %14
w: ||||come||||to||||||
w: ||||ways||||can|||am|of||
w: ||||come||||and||||||
 x4 =D2 | c3 (C2 C2) | B2 x4 | x6 | x4 |] %19
w: |||||
w: I|ter- nal *||||
w: |||||
V:3
 [G,,G,] | [G,,G,]3 [G,,G,] [G,,G,]3 [G,,G,] | [C,G,][C,G,][C,G,][C,G,] [G,,G,]2 [G,,G,][G,,G,] | %3
 [D,A,]3 [D,F,] [G,,G,]3 [G,,G,] | [A,,F,][A,,F,][A,,G,][A,,A,] [D,A,]3 [G,,G,] | %5
 [G,,G,]3 [G,,G,] [G,,G,]3 [G,,G,] | [C,G,][C,G,][C,G,][C,G,] | [G,,G,]2 [G,,G,][G,,G,] | %8
 [G,,G,]2 [B,,G,]2 [C,G,]3 [C,G,] | [D,F,][D,F,][D,F,][D,F,] [G,,G,]2 ||[M:3/4] z2 | %11
 [D,A,]>[D,B,] [D,C]2 z2 | [G,B,]>[G,C] [G,D]2 z2 | [D,,C,]6 | [B,,,B,,]4 [E,^G,]2 | %15
 [A,,A,]>[A,,A,] [A,,A,]2 [D,F,]2 x | [G,,G,]>[G,,G,] [G,,G,]2 [C,G,][C,G,] | %17
 [D,G,][D,D] [D,C]3 [G,B,] | [G,B,]4 |] %19

